X: 3035
T: Bay Of Fundy
R: reel
M: 4/4
K: Dmajor
fg|:a2 ab afdf|afbf a2 ef|gfga ge=ce|geae g2 fg|
a2 ab afdf|afbf a2 ef|gfeg fedf|1 ecAc d2 fg:|2 ecAc d2 cB||
|:Adfd edfd|Bdgd Bdgd|Adfd Adfd|cAcd efec|
Adfd edfd|Bdgd Bdgd|fedf edce|1 d2 f2 d2 cB:|2 d2 f2 d2 z2||

